src/components/ProtocolIcon/bnb.svg

<svg width="14" height="16" viewBox="0 0 14 16" fill="none" xmlns="http://www.w3.org/2000/svg">
<path d="M2.66329 2.45073L6.8996 0L11.1359 2.45073L9.57844 3.3561L6.8996 1.81073L4.22076 3.3561L2.66329 2.45073ZM11.1359 5.54146L9.57844 4.6361L6.8996 6.18147L4.22076 4.6361L2.66329 5.54146V7.3522L5.34213 8.89757V11.9883L6.8996 12.8936L8.45707 11.9883V8.89757L11.1359 7.3522V5.54146ZM11.1359 10.4429V8.6322L9.57844 9.53757V11.3483L11.1359 10.4429ZM12.2418 11.0829L9.56286 12.6283V14.439L13.7992 11.9883V7.08683L12.2418 7.9922V11.0829ZM10.6843 3.9961L12.2418 4.90146V6.7122L13.7992 5.80683V3.9961L12.2418 3.09073L10.6843 3.9961ZM5.34213 13.2839V15.0946L6.8996 16L8.45707 15.0946V13.2839L6.8996 14.1893L5.34213 13.2839ZM2.66329 10.4429L4.22076 11.3483V9.53757L2.66329 8.6322V10.4429ZM5.34213 3.9961L6.8996 4.90146L8.45707 3.9961L6.8996 3.09073L5.34213 3.9961ZM1.55747 4.90146L3.11494 3.9961L1.55747 3.09073L0 3.9961V5.80683L1.55747 6.7122V4.90146ZM1.55747 7.9922L0 7.08683V11.9883L4.23631 14.439V12.6283L1.55747 11.0829V7.9922Z" fill="#F0B90B"/>
</svg>

<svg xmlns="http://www.w3.org/2000/svg" width="14" height="16" fill="none"><path fill="#F0B90B" d="M2.663 2.45 6.9 0l4.236 2.45-1.558.906L6.9 1.811 4.22 3.356zm8.473 3.091-1.558-.905L6.9 6.181 4.22 4.636l-1.557.905v1.811l2.68 1.546v3.09l1.557.906 1.557-.906v-3.09l2.679-1.546zm0 4.902v-1.81l-1.558.905v1.81zm1.106.64-2.68 1.545v1.811l4.237-2.45V7.086l-1.557.905zm-1.558-7.087 1.558.905v1.811l1.557-.905v-1.81l-1.557-.906zm-5.342 9.288v1.81L6.9 16l1.557-.905v-1.811l-1.557.905zm-2.679-2.841 1.558.905v-1.81l-1.558-.906zm2.68-6.447 1.557.905 1.557-.905L6.9 3.091zm-3.786.905 1.558-.905-1.558-.905L0 3.996v1.81l1.557.906zm0 3.091L0 7.087v4.901l4.236 2.451v-1.81l-2.679-1.546z"/></svg>
